pp/share-ios_print.svg

<svg viewBox="0 0 20 20" fill="none" xmlns="http://www.w3.org/2000/svg" height="1em" width="1em">
  <g clip-path="url(#a)">
    <path opacity="0.8" fill-rule="evenodd" clip-rule="evenodd" d="M15.5 9H16.5C17.6046 9 18.5 9.75767 18.5 10.6923V18.3077C18.5 19.2423 17.6046 20 16.5 20H8.5C7.39543 20 6.5 19.2423 6.5 18.3077L6.5 10.6923C6.5 9.75767 7.39543 9 8.5 9H9.5" fill="currentColor"/>
    <path d="M9.99834 2.50008C9.99829 2.22394 10.2221 2.00004 10.4983 2C10.7744 1.99996 10.9983 2.22378 10.9983 2.49992L11 12.9999C11 13.2761 10.7762 13.5 10.5001 13.5C10.2239 13.5 10 13.2762 10 13.0001L9.99834 2.50008Z" fill="black"/>
    <path d="M10.8201 2.8841C11.0322 2.70732 11.0609 2.39203 10.8841 2.1799C10.7073 1.96776 10.392 1.93909 10.1799 2.11588L7.17991 4.61588C6.96777 4.79266 6.93911 5.10794 7.11589 5.32008C7.29267 5.53222 7.60796 5.56088 7.82009 5.3841L10.8201 2.8841Z" fill="black"/>
    <path d="M10.1799 2.8841C9.96777 2.70732 9.9391 2.39203 10.1159 2.1799C10.2927 1.96776 10.608 1.93909 10.8201 2.11588L13.8201 4.61588C14.0322 4.79266 14.0609 5.10794 13.8841 5.32008C13.7073 5.53222 13.392 5.56088 13.1799 5.3841L10.1799 2.8841Z" fill="black"/>
    <path d="M13.2483 9C12.9722 9 12.7483 8.77614 12.7483 8.5C12.7483 8.22386 12.9722 8 13.2483 8L14.165 8C15.4362 8 16.4983 8.89134 16.4983 10.0385V16.9615C16.4983 18.1087 15.4362 19 14.165 19H6.83167C5.56052 19 4.49834 18.1087 4.49834 16.9615L4.49834 10.0385C4.49834 8.89134 5.56052 8 6.83167 8H7.74834C8.02448 8 8.24834 8.22386 8.24834 8.5C8.24834 8.77614 8.02448 9 7.74834 9H6.83167C6.07778 9 5.49834 9.48625 5.49834 10.0385L5.49834 16.9615C5.49834 17.5138 6.07778 18 6.83167 18H14.165C14.9189 18 15.4983 17.5138 15.4983 16.9615L15.4983 10.0385C15.4983 9.48625 14.9189 9 14.165 9H13.2483Z" fill="black"/>
  </g>
  <defs>
    <clipPath id="a">
      <rect width="20" height="20" fill="white"/>
    </clipPath>
  </defs>
</svg>

<svg viewBox="0 0 20 20" fill="none" xmlns="http://www.w3.org/2000/svg" height="1em" width="1em">
  <g clip-path="url(#a)">
    <path opacity=".8" fill-rule="evenodd" clip-rule="evenodd" d="M15.5 9h1c1.105 0 2 .758 2 1.692v7.616c0 .934-.895 1.692-2 1.692h-8c-1.105 0-2-.758-2-1.692v-7.616C6.5 9.758 7.395 9 8.5 9h1" fill="currentColor"/>
    <path d="M9.998 2.5a.5.5 0 1 1 1 0L11 13a.5.5 0 1 1-1 0L9.998 2.5Z" fill="#000"/>
    <path d="M10.82 2.884a.5.5 0 0 0-.64-.768l-3 2.5a.5.5 0 1 0 .64.768l3-2.5Z" fill="#000"/>
    <path d="M10.18 2.884a.5.5 0 1 1 .64-.768l3 2.5a.5.5 0 0 1-.64.768l-3-2.5ZM13.248 9a.5.5 0 0 1 0-1h.917c1.271 0 2.333.891 2.333 2.039v6.923c0 1.147-1.062 2.038-2.333 2.038H6.832c-1.271 0-2.334-.891-2.334-2.038v-6.923C4.498 8.89 5.561 8 6.832 8h.916a.5.5 0 0 1 0 1h-.916c-.754 0-1.334.486-1.334 1.039v6.923c0 .552.58 1.038 1.334 1.038h7.333c.754 0 1.333-.486 1.333-1.038v-6.923c0-.553-.58-1.039-1.333-1.039h-.917Z" fill="#000"/>
  </g>
  <defs>
    <clipPath id="a">
      <path fill="#fff" d="M0 0h20v20H0z"/>
    </clipPath>
  </defs>
</svg>
